svg/Pictogram/pictograms-nps-misc-slipper_steps.svg

<svg xmlns="http://www.w3.org/2000/svg" viewBox="0 0 256 256"><path d="m0 0c-.541 0-.982-.441-.982-.982v-7.528c0-.541.441-.98.982-.98h7.527c.541 0 .981.439.981.98v7.528c0 .541-.44.982-.981.982h-7.527" fill="#fff" transform="matrix(25.88473 0 0-25.88473 30.591 5.148)"/><path d="m0 0c-.072-.207-.299-.314-.506-.242-.008.004-.015.008-.025.012l-1.367.605-1.12-.678.676-.203c.104-.058.174-.158.197-.269l.196-1.528c.001-.062.006-.131-.018-.193-.072-.207-.299-.317-.506-.242-.142.05-.24.175-.259.316l-.161 1.248-1.086.324c-.183.092-.312.262-.357.455l-.242 1.372-.506-.635c-.033-.037-.074-.065-.119-.082l-1.246.14c-.065-.017-.135-.013-.199.016-.155.066-.227.246-.159.402.036.08.102.139.18.166l1.225-.146.888 1.193c.055.065.119.119.194.158l2.107 1.239c.072.045.162.058.248.033.162-.049.254-.219.207-.381-.023-.08-.078-.142-.148-.182l-1.479-.865.242-1.494 1.03.629c.095.053.215.066.326.027.008-.002.014-.006.021-.007l1.559-.696c.184-.086.275-.297.207-.492m-2.223-4.309h-1.672v1.387h-1.271v1.186h-1.311v1.271h-1.261v.447h1.638.073v-1.271h1.308v-1.186h1.272v-1.386h1.224v-.448zm-3.338 7.184c.104.338.461.527.797.424.338-.104.528-.459.426-.797-.103-.338-.461-.527-.799-.424-.336.104-.527.459-.424.797m5.471 1.82h-7.527c-.653 0-1.182-.529-1.182-1.181v-7.528c0-.652.529-1.181 1.182-1.181h7.527c.653 0 1.182.529 1.182 1.181v7.528c0 .652-.529 1.181-1.182 1.181" transform="matrix(25.88473 0 0-25.88473 227.76 121.53)"/></svg>

<?xml version="1.0" encoding="UTF-8" standalone="no"?>
<!-- Created with Inkscape (http://www.inkscape.org/) -->
<svg
   xmlns:dc="http://purl.org/dc/elements/1.1/"
   xmlns:cc="http://creativecommons.org/ns#"
   xmlns:rdf="http://www.w3.org/1999/02/22-rdf-syntax-ns#"
   xmlns:svg="http://www.w3.org/2000/svg"
   xmlns="http://www.w3.org/2000/svg"
   xmlns:sodipodi="http://sodipodi.sourceforge.net/DTD/sodipodi-0.dtd"
   xmlns:inkscape="http://www.inkscape.org/namespaces/inkscape"
   width="256"
   height="256"
   id="svg8302"
   sodipodi:version="0.32"
   inkscape:version="0.46"
   version="1.0"
   sodipodi:docname="pictograms-nps-misc-slipper_steps-2.svg"
   inkscape:output_extension="org.inkscape.output.svg.inkscape">
  <defs
     id="defs8304">
    <inkscape:perspective
       sodipodi:type="inkscape:persp3d"
       inkscape:vp_x="0 : 526.18109 : 1"
       inkscape:vp_y="0 : 1000 : 0"
       inkscape:vp_z="744.09448 : 526.18109 : 1"
       inkscape:persp3d-origin="372.04724 : 350.78739 : 1"
       id="perspective8310" />
  </defs>
  <sodipodi:namedview
     id="base"
     pagecolor="#ffffff"
     bordercolor="#666666"
     borderopacity="1.0"
     gridtolerance="10000"
     guidetolerance="10"
     objecttolerance="10"
     inkscape:pageopacity="0.0"
     inkscape:pageshadow="2"
     inkscape:zoom="0.7"
     inkscape:cx="61.634556"
     inkscape:cy="136.73676"
     inkscape:document-units="px"
     inkscape:current-layer="layer1"
     showgrid="false"
     inkscape:window-width="738"
     inkscape:window-height="674"
     inkscape:window-x="0"
     inkscape:window-y="198" />
  <metadata
     id="metadata8307">
    <rdf:RDF>
      <cc:Work
         rdf:about="">
        <dc:format>image/svg+xml</dc:format>
        <dc:type
           rdf:resource="http://purl.org/dc/dcmitype/StillImage" />
      </cc:Work>
    </rdf:RDF>
  </metadata>
  <g
     inkscape:label="Layer 1"
     inkscape:groupmode="layer"
     id="layer1">
    <g
       id="g2796"
       transform="matrix(25.884732,0,0,-25.884732,30.590982,5.1481626)">
      <path
         d="M 0,0 C -0.541,0 -0.982,-0.441 -0.982,-0.982 L -0.982,-8.51 C -0.982,-9.051 -0.541,-9.49 0,-9.49 L 7.527,-9.49 C 8.068,-9.49 8.508,-9.051 8.508,-8.51 L 8.508,-0.982 C 8.508,-0.441 8.068,0 7.527,0 L 0,0 z"
         style="fill:#ffffff;fill-opacity:1;fill-rule:nonzero;stroke:none"
         id="path2798" />
    </g>
    <g
       id="g2800"
       transform="matrix(25.884732,0,0,-25.884732,227.75976,121.52882)">
      <path
         d="M 0,0 C -0.072,-0.207 -0.299,-0.314 -0.506,-0.242 C -0.514,-0.238 -0.521,-0.234 -0.531,-0.23 L -1.898,0.375 L -3.018,-0.303 L -2.342,-0.506 C -2.238,-0.564 -2.168,-0.664 -2.145,-0.775 L -1.949,-2.303 C -1.939,-2.365 -1.943,-2.434 -1.967,-2.496 C -2.039,-2.703 -2.266,-2.813 -2.473,-2.738 C -2.615,-2.688 -2.713,-2.563 -2.732,-2.422 L -2.893,-1.174 L -3.979,-0.85 C -4.162,-0.758 -4.291,-0.588 -4.336,-0.395 L -4.578,0.977 L -5.084,0.342 C -5.117,0.305 -5.158,0.277 -5.203,0.26 L -6.449,0.4 C -6.514,0.383 -6.584,0.387 -6.648,0.416 C -6.803,0.482 -6.875,0.662 -6.807,0.818 C -6.771,0.898 -6.705,0.957 -6.627,0.984 L -5.402,0.838 L -4.514,2.031 C -4.459,2.096 -4.395,2.15 -4.32,2.189 L -2.213,3.428 C -2.141,3.473 -2.051,3.486 -1.965,3.461 C -1.803,3.412 -1.711,3.242 -1.758,3.08 C -1.781,3 -1.836,2.938 -1.906,2.898 L -3.385,2.033 L -3.143,0.539 L -2.113,1.168 C -2.018,1.221 -1.898,1.234 -1.787,1.195 C -1.779,1.193 -1.773,1.189 -1.766,1.188 L -0.207,0.492 C -0.023,0.406 0.068,0.195 0,0 M -2.223,-4.309 L -3.895,-4.309 L -3.895,-2.922 L -5.166,-2.922 L -5.166,-1.736 L -6.477,-1.736 L -6.477,-0.465 L -7.738,-0.465 L -7.738,-0.018 L -6.1,-0.018 L -6.027,-0.018 L -6.027,-1.289 L -4.719,-1.289 L -4.719,-2.475 L -3.447,-2.475 L -3.447,-3.861 L -2.223,-3.861 L -2.223,-4.309 z M -5.561,2.875 C -5.457,3.213 -5.1,3.402 -4.764,3.299 C -4.426,3.195 -4.236,2.84 -4.338,2.502 C -4.441,2.164 -4.799,1.975 -5.137,2.078 C -5.473,2.182 -5.664,2.537 -5.561,2.875 M -0.09,4.695 L -7.617,4.695 C -8.27,4.695 -8.799,4.166 -8.799,3.514 L -8.799,-4.014 C -8.799,-4.666 -8.27,-5.195 -7.617,-5.195 L -0.09,-5.195 C 0.563,-5.195 1.092,-4.666 1.092,-4.014 L 1.092,3.514 C 1.092,4.166 0.563,4.695 -0.09,4.695"
         style="fill:#000000;fill-opacity:1;fill-rule:nonzero;stroke:none"
         id="path2802" />
    </g>
  </g>
</svg>
